X: 1
T: the Black Pearl
P: piffero primo a0518
O: Roy Watrous
%R: march, reel
S: http://ancients.sudburymuster.org/mus/sng/pdf/blackpC0.pdf
Z: 2020 John Chambers <jc:trillian.mit.edu>
M: 2/4
L: 1/16
K: Bm
F2 |\
B2f2 d2B2 | f2B2 d2 (3(dcB | A2)a2 e2c2 | Aaec Aafd |\
B2f2 d2B2 | f2B2 d2Tf2 |
efga gece | d2B2 B2 :: F2 |\
BfdB fdBf | dBfd B2B2 | Aaec aeca |
ecde fedc |\
BFBd fFBd | fFBd f2f2 | efga gece | d2B2 B2 :|
